X: 116
T: Taiping diao
L: 1/8
M: 2/4
K: F
A c d c [I:setbarnb 1]| 
c3f | 
A G F D | 
G4 | 
G> G G A | 
c2d c | 
A3G | 
F G c A | 
G4 | 
G Ac2 | 
d c A G | 
F3A | 
G A G F | 
D D F D | 
C4 | 
DD2F | 
G2A G | 
F4 | 
D F G A | 
C4 | 
D2F D | 
C3D | 
C2C2 | 
C4 |]

@@@ Tune index: 8990
